other/china_mobile.svg

<?xml version="1.0" encoding="UTF-8"?><svg id="a" xmlns="http://www.w3.org/2000/svg" viewBox="0 0 48 48"><defs><style>.g{fill:none;stroke:#fff;stroke-linecap:round;stroke-linejoin:round;}</style></defs><path id="b" class="g" d="m6,15.5S18,3,24,3s16,11,21,17"/><path id="c" class="g" d="m12,21s10-11,15-11,18,15,18,15"/><path id="d" class="g" d="m4,18s10,12,13,12,11-12,14-12,13,12,13,12"/><path id="e" class="g" d="m36,27s-10,11-15,11S3,23,3,23"/><path id="f" class="g" d="m42,32.5s-12,12.5-18,12.5S8,34,3,28"/></svg>

<?xml version="1.0" encoding="UTF-8" standalone="no"?>
<svg
   viewBox="0 0 48 48"
   version="1.1"
   id="svg1"
   sodipodi:docname="china_mobile.svg"
   inkscape:version="1.3 (0e150ed6c4, 2023-07-21)"
   xml:space="preserve"
   xmlns:inkscape="http://www.inkscape.org/namespaces/inkscape"
   xmlns:sodipodi="http://sodipodi.sourceforge.net/DTD/sodipodi-0.dtd"
   xmlns="http://www.w3.org/2000/svg"
   xmlns:svg="http://www.w3.org/2000/svg"><sodipodi:namedview
     id="namedview1"
     pagecolor="#505050"
     bordercolor="#eeeeee"
     borderopacity="1"
     inkscape:showpageshadow="0"
     inkscape:pageopacity="0"
     inkscape:pagecheckerboard="0"
     inkscape:deskcolor="#505050"
     inkscape:zoom="14.142136"
     inkscape:cx="21.884954"
     inkscape:cy="27.68323"
     inkscape:window-width="1920"
     inkscape:window-height="1043"
     inkscape:window-x="1920"
     inkscape:window-y="0"
     inkscape:window-maximized="1"
     inkscape:current-layer="svg1"
     showguides="false"
     showgrid="false" /><defs
     id="defs1"><style
       id="style1">.a{fill:none;stroke:#fff;stroke-linecap:round;stroke-linejoin:round;}</style></defs><path
     d="M 6,15.5 C 6,15.5 18,3 24,3 30,3 40,14 45,20&#10;"
     id="path1"
     sodipodi:nodetypes="csc"
     class="a" /><path
     d="M 12,21 C 12,21 22,10 27,10 32,10 45,25 45,25"
     id="path2"
     class="a"
     sodipodi:nodetypes="ccc" /><path
     d="M 4,18 C 4,18 14,30 17,30 20,30 28,18 31,18 34,18 44,30 44,30"
     id="path3"
     class="a"
     sodipodi:nodetypes="cssc" /><path
     d="M 36,27 C 36,27 26,38 21,38 16,38 3,23 3,23"
     id="path4"
     class="a"
     sodipodi:nodetypes="ccc" /><path
     d="M 42,32.5 C 42,32.5 30,45 24,45 18,45 8,34 3,28"
     id="path5"
     sodipodi:nodetypes="csc"
     class="a" /></svg>
